public/img/partners/Logo_of_Ministry_of_Culture_of_Ukraine.svg

<svg width="97" height="48" viewBox="0 0 97 48" fill="none" xmlns="http://www.w3.org/2000/svg">
    <g clip-path="url(#clip0_2576_70136)">
        <rect width="97" height="48" fill="white"/>
        <path fill-rule="evenodd" clip-rule="evenodd" d="M68.0599 9.5967C65.5247 9.5967 63.4694 11.6519 63.4694 14.1872C63.4694 16.7225 65.5247 18.7777 68.0599 18.7777C70.5952 18.7777 72.6504 16.7225 72.6504 14.1872C72.6504 11.6519 70.5952 9.5967 68.0599 9.5967ZM61.8727 14.1872C61.8727 10.7701 64.6428 8 68.0599 8C71.477 8 74.2471 10.7701 74.2471 14.1872C74.2471 17.6043 71.477 20.3744 68.0599 20.3744C64.6428 20.3744 61.8727 17.6043 61.8727 14.1872ZM40.6153 11.8942V38.7387H42.212V28.8573H44.8068C52.3848 28.8573 55.6843 34.52 55.6843 38.6371H57.281C57.281 33.7727 53.3953 27.2606 44.8068 27.2606H42.212V11.8942H40.6153ZM0 38.7362V20.3774V20.3741C0.000587193 19.0551 0.354435 17.3506 1.40865 15.9545C2.49153 14.5204 4.2555 13.4917 6.88576 13.4917C10.5386 13.4917 14.4839 15.2601 17.7645 17.9337C21.0451 15.2601 24.9904 13.4917 28.6432 13.4917C31.2735 13.4917 33.0375 14.5204 34.1203 15.9545C35.1754 17.3518 35.529 19.058 35.529 20.3774H35.5263V38.7362H33.9296V20.3741H33.9323C33.9317 19.2991 33.6364 17.9633 32.8461 16.9167C32.0828 15.9058 30.8031 15.0884 28.6432 15.0884C25.5314 15.0884 22.0177 16.5893 18.986 18.9997C19.0668 19.0752 19.1471 19.1512 19.2268 19.2277C22.7507 22.6106 25.3454 27.1686 25.3476 31.7482C25.3649 33.0452 24.9933 34.9619 23.8579 36.5787C22.6919 38.2389 20.7477 39.5373 17.7651 39.5378L16.8798 39.4979C14.3909 39.2677 12.7173 38.069 11.6708 36.5787C10.5355 34.9618 10.164 33.0452 10.1814 31.7482C10.1835 27.1686 12.7783 22.6106 16.3022 19.2277C16.3819 19.1512 16.4622 19.0752 16.543 18.9997C13.5113 16.5893 9.99758 15.0884 6.88576 15.0884C4.72593 15.0884 3.4462 15.9058 2.68289 16.9167C1.8918 17.9643 1.5967 19.3018 1.5967 20.3774V38.7362H0ZM16.8815 39.498L0 38.7362L16.8798 39.4979L16.8815 39.498ZM17.7633 39.5378L16.8815 39.498C17.1648 39.5242 17.4586 39.5378 17.7633 39.5378ZM17.7645 20.0446C17.8844 20.1549 18.0033 20.2665 18.121 20.3795C21.4565 23.5816 23.7509 27.7532 23.7509 31.7539V31.7596L23.751 31.7653C23.7657 32.7968 23.4581 34.3696 22.5512 35.6611C21.6734 36.911 20.2088 37.9409 17.7642 37.9411C15.3196 37.9409 13.8552 36.911 12.9775 35.6611C12.0707 34.3697 11.7633 32.7968 11.778 31.7653L11.7781 31.7596V31.7539C11.7781 27.7532 14.0725 23.5816 17.408 20.3795C17.5257 20.2665 17.6446 20.1549 17.7645 20.0446ZM67.3604 38.7369V27.2606H68.9571V38.7369H67.3604ZM76.043 23.8667V38.7367H77.6397V23.8667C77.6397 18.9615 81.6161 14.9851 86.5213 14.9851C91.4187 14.9851 95.3902 18.9488 95.4029 23.8432V38.7367H96.9996L96.9996 23.8667C96.9996 23.8582 96.9996 23.8496 96.9996 23.8411V23.7677H96.9992C96.9461 18.0263 92.2753 13.3884 86.5213 13.3884C80.7673 13.3884 76.0966 18.0263 76.0434 23.7677H76.043V23.8667ZM48.1011 18.1768C48.1011 15.6415 50.1563 13.5863 52.6916 13.5863C55.2269 13.5863 57.2821 15.6415 57.2821 18.1768C57.2821 20.7121 55.2269 22.7673 52.6916 22.7673C50.1563 22.7673 48.1011 20.7121 48.1011 18.1768ZM52.6916 11.9896C49.2745 11.9896 46.5044 14.7597 46.5044 18.1768C46.5044 21.5939 49.2745 24.364 52.6916 24.364C56.1087 24.364 58.8788 21.5939 58.8788 18.1768C58.8788 14.7597 56.1087 11.9896 52.6916 11.9896Z" fill="#1D191A"/>
    </g>
    <defs>
        <clipPath id="clip0_2576_70136">
            <rect width="97" height="48" fill="white"/>
        </clipPath>
    </defs>
</svg>

<?xml version="1.0" encoding="utf-8"?>
<!-- Generator: Adobe Illustrator 26.4.1, SVG Export Plug-In . SVG Version: 6.00 Build 0)  -->
<svg version="1.1" id="Layer_1" xmlns="http://www.w3.org/2000/svg" xmlns:xlink="http://www.w3.org/1999/xlink" x="0px" y="0px"
	 viewBox="0 0 97 48" style="enable-background:new 0 0 97 48;" xml:space="preserve">
<style type="text/css">
	.st0{clip-path:url(#SVGID_00000125589495503148695550000011641288005759403926_);}
	.st1{fill:#FFFFFF;}
	.st2{fill-rule:evenodd;clip-rule:evenodd;fill:#1D191A;}
</style>
<g>
	<defs>
		<rect id="SVGID_1_" width="97" height="48"/>
	</defs>
	<clipPath id="SVGID_00000080192554037585645770000003344143830291241145_">
		<use xlink:href="#SVGID_1_"  style="overflow:visible;"/>
	</clipPath>
	<g style="clip-path:url(#SVGID_00000080192554037585645770000003344143830291241145_);">
		<rect class="st1" width="97" height="48"/>
		<path class="st2" d="M68.1,9.6c-2.5,0-4.6,2.1-4.6,4.6s2.1,4.6,4.6,4.6c2.5,0,4.6-2.1,4.6-4.6S70.6,9.6,68.1,9.6z M61.9,14.2
			c0-3.4,2.8-6.2,6.2-6.2s6.2,2.8,6.2,6.2s-2.8,6.2-6.2,6.2S61.9,17.6,61.9,14.2z M40.6,11.9v26.8h1.6v-9.9h2.6
			c7.6,0,10.9,5.7,10.9,9.8h1.6c0-4.9-3.9-11.4-12.5-11.4h-2.6V11.9H40.6z M0,38.7V20.4v0c0-1.3,0.4-3,1.4-4.4
			c1.1-1.4,2.8-2.5,5.5-2.5c3.7,0,7.6,1.8,10.9,4.4c3.3-2.7,7.2-4.4,10.9-4.4c2.6,0,4.4,1,5.5,2.5c1.1,1.4,1.4,3.1,1.4,4.4h0v18.4
			h-1.6V20.4h0c0-1.1-0.3-2.4-1.1-3.5c-0.8-1-2-1.8-4.2-1.8c-3.1,0-6.6,1.5-9.7,3.9c0.1,0.1,0.2,0.2,0.2,0.2
			c3.5,3.4,6.1,7.9,6.1,12.5c0,1.3-0.4,3.2-1.5,4.8c-1.2,1.7-3.1,3-6.1,3l-0.9,0c-2.5-0.2-4.2-1.4-5.2-2.9c-1.1-1.6-1.5-3.5-1.5-4.8
			c0-4.6,2.6-9.1,6.1-12.5c0.1-0.1,0.2-0.2,0.2-0.2c-3-2.4-6.5-3.9-9.7-3.9c-2.2,0-3.4,0.8-4.2,1.8c-0.8,1-1.1,2.4-1.1,3.5v18.4H0z
			 M17.8,39.5l-0.9,0C17.2,39.5,17.5,39.5,17.8,39.5z M17.8,20c0.1,0.1,0.2,0.2,0.4,0.3c3.3,3.2,5.6,7.4,5.6,11.4v0l0,0
			c0,1-0.3,2.6-1.2,3.9c-0.9,1.2-2.3,2.3-4.8,2.3c-2.4,0-3.9-1-4.8-2.3c-0.9-1.3-1.2-2.9-1.2-3.9l0,0v0c0-4,2.3-8.2,5.6-11.4
			C17.5,20.3,17.6,20.2,17.8,20z M67.4,38.7V27.3H69v11.5H67.4z M76,23.9v14.9h1.6V23.9c0-4.9,4-8.9,8.9-8.9c4.9,0,8.9,4,8.9,8.9
			v14.9H97V23.9c0,0,0,0,0,0v-0.1h0c-0.1-5.7-4.7-10.4-10.5-10.4S76.1,18,76,23.9L76,23.9L76,23.9z M48.1,18.2
			c0-2.5,2.1-4.6,4.6-4.6c2.5,0,4.6,2.1,4.6,4.6s-2.1,4.6-4.6,4.6C50.2,22.8,48.1,20.7,48.1,18.2z M52.7,12c-3.4,0-6.2,2.8-6.2,6.2
			s2.8,6.2,6.2,6.2s6.2-2.8,6.2-6.2S56.1,12,52.7,12z"/>
	</g>
</g>
</svg>
